!!!OTL: Christus iam surrexit
**kern
*staff1
=1-
*clefF4
*k[]
*met(c|)
*M2/2
1D
1F
2.C/
4D\
2E\
2G\
=2
2D\
2F\
2G\
2A\
0D
=3
!!linebreak:original
1F
2G\
2E\
1C
1G
=4
1A
1E
1AA
!!linebreak:original
=5
1A
1D
1G
1C
=6
1F
2E\
2C/
2D\
2BB/
0AA
!!linebreak:original
=7
2.D\
4E\
1F
2.C/
4D\
1E
=8
2F\
2D\
1A
1D
=9
!!linebreak:original
!LO:TX:Y=-38:t=P
1GG
2.C/
4D\
2E\
2G\
2F\
1A
0D
=10
2.E\
4D\
1C
1F
2E\
2F\
=11
2E\
2C/
2D\
2BB/
0AA
=12
!LO:TX:Y=-524:t=P
!LO:TX:Y=-360:t=P
0D
==
*-
!!title: @{OTL}, @{GTL}, ed. @{ENC}
!!!pag:
!!!GTL: Hymnbook D
!!!EFL: 
!!!YEM: Creative Commons CC/BY/NC/SA 4.0
!!!ENC: Marcin Konik
!!!END: 2015-0m-dd
!!!EED: Marcin Konik
!!!EEV: 
!!!ONB: Encoded in vim by Marcin Konik
!!!CharacterEncoding: utf-8
!!!RDF**kern: l=long note in original notation
!!!RDF**kern: i=editorial accidental
!!muse2ps: z14jc180F
!!!COM: Anonim
!!!CDT: [?]
!!!TXO: Polish
!!!ODT: 
!!!GTL: Hymnbook D
!!!ARL: Opactwo św. Wojciecha, Staniątki 
!!!voices:	1
